!!!COA:	Josquin des Prez
!!!CDT:	~1450-1521/08/27
!!!OTL: Gloria  De beata virgine
!!!AGN:	Mass section; Gloria
!!!SCT:	NJE 13.7
!!!SCA:	New Josquin Edition 13.7
!!!voices: 4
**kern	**kern	**kern	**kern
*staff4	*staff3	*staff2	*staff1
*Ivox	*Ivox	*Ivox	*Ivox
*I"Bassus	*I"Tenor	*I"Altus	*I"Superius
*I'B	*I'T	*I'A	*I'S
*>A	*>A	*>A	*>A
*clefF4	*clefGv2	*clefGv2	*clefG2
*k[]	*k[]	*k[]	*k[]
*M3/1	*M3/1	*M3/1	*M3/1
*met(O)	*met(O)	*met(O)	*met(O)
!!!OMD: Et in terra pax
!!section: Et in terra pax
=1-	=1-	=1-	=1-
0G	0d	0G	0g
[1E	1e	[1g	1g
=2	=2	=2	=2
1E]	2.B\	1g]	1g
.	4c\	.	.
0D	1d	0f	1.a
.	1d	.	.
.	.	.	4g/
.	.	.	4a/
=3	=3	=3	=3
0d	0G	1.g	0b
.	.	2f\	.
2.c\	1A	1e	1cc
4B\	.	.	.
=4	=4	=4	=4
1G	1B	1d	1b
0F	2.c\	0f	1.a
.	4B\	.	.
.	1A	.	.
.	.	.	4g/
.	.	.	4a/
=5	=5	=5	=5
1G	0G	1d	0b
1E	.	1e	.
[1F	2.c\	1A	2r
.	.	.	[2cc\
.	4B\	.	.
=6	=6	=6	=6
2F\]	2A/	2r	2cc\]
2G\	2G/	1d	2b\
2F\	2A/	.	2a/
2G\	2E/	2B\	2g/
1D	1F#i	1A	1a
=7	=7	=7	=7
1.d	0.G	1.G	1b
.	.	.	1r
4c\	.	2.g\	.
4B-\	.	.	.
[1B-i	.	.	[1dd
.	.	4f\	.
.	.	2g\	.
=8	=8	=8	=8
1B-]	0.r	2d\	1dd]
.	.	2.f\	.
1F	.	.	1cc
.	.	4e\	.
.	.	1a	.
1G	.	.	1b
.	.	2g\	.
=9	=9	=9	=9
1D	0.r	2f\	2.a/
.	.	1a	.
.	.	.	4b\
1r	.	.	2cc\
.	.	2f\	1dd
1A	.	1e	.
.	.	.	2cc#i\
=10	=10	=10	=10
2.B-i\	1r	2.d\	0.dd
4A\	.	4c\	.
2F\	1r	2A/	.
2.G\	.	2G/	.
.	1d	[1B	.
4F\	.	.	.
[2D\	.	.	.
=11	=11	=11	=11
2D\]	1d	2B\]	0.r
2.F\	.	2A/	.
.	1c	1A	.
4E\	.	.	.
1A	.	.	.
.	1B	1r	.
2G\	.	.	.
=12	=12	=12	=12
2F\	2.A/	1r	0.r
1A	.	.	.
.	4B\	.	.
.	2c\	1r	.
2F\	1d	.	.
1E	.	1g	.
.	2c#i\	.	.
=13	=13	=13	=13
1D	1d	1f	1dd
1r	1r	2d\	2b\
.	.	2.e-\	2.cc\
1C	1r	.	.
.	.	4d\	4b\
.	.	4c\	4a/
.	.	4B-i\	4g/
=14	=14	=14	=14
1D	1d	1A	1f
1E	2B\	1G	1g
.	2.c\	.	.
2.F\	.	2F/	[1a
.	4B\	.	.
.	4A/	[2f\	.
4E\	4G/	.	.
=15	=15	=15	=15
4D\	1F	4f\]	2a/]
4C/	.	4e\	.
2BB-i/	.	1d	2.b-i\
1E-i	1G	.	.
.	.	.	8a/L
.	.	.	8g/J
.	.	2c\	1g
1D	1A	[1d	.
.	.	.	2f#i/
=16	=16	=16	=16
1r	0.G	1d]	0.g
1r	.	1B	.
1d	.	1G	.
=17	=17	=17	=17
0e	0.r	0g	1r
.	.	.	1r
1d	.	1f	1dd
=18	=18	=18	=18
1.c	1r	2.e\	0ee
.	.	4f\	.
.	1r	2g\	.
4B\	.	2a\	.
4A\	.	.	.
1B	1g	1d	1dd
=19	=19	=19	=19
1A	0a	0.e	1.cc
1r	.	.	.
.	.	.	2a/
1E	1g	.	1b
=20	=20	=20	=20
2F\	1.f	2A/	2.a/
2D\	.	1a	.
.	.	.	4b\
2A\	.	.	2cc\
2B-i\	2d\	2g\	1dd
1A	1e	1a	.
.	.	.	2cc#i\
=21	=21	=21	=21
1D	1d	1f	1.dd
0G	1r	1g	.
.	.	.	2cc\
.	1G	2d\	1b
.	.	2e\	.
=22	=22	=22	=22
1F	1A	1f	1a
1G	1B	2d\	2r
.	.	2e\	2g/
2F\	2c\	2f\	2a/
[2G\	2B\	[2d\	2g/
=23	=23	=23	=23
2G\]	1A	4d\]	1a
.	.	4e\	.
2F\	.	2f\	.
2G\	1G	2d\	2b\
2B-i\	.	1g	2g/
1A	1c	.	2a/
.	.	2f\	2cc\
=24	=24	=24	=24
1G	0.d	2g\	1b
.	.	2G/	.
2F\	.	2A/	2a/
1G	.	4G/	2.b\
.	.	2B\	.
.	.	4c\	4g/
2F\	.	2A/	2a/
=25	=25	=25	=25
2G\	2r	1G	2b\
2B-i\	2d\	.	2g/
1A	2e\	2.c\	2a/
.	2f\	.	2cc\
.	.	4d\	.
2r	2.g\	2e\	2r
2G\	.	2d\	2b\
.	4f\	.	.
=26	=26	=26	=26
2A\	2e\	2r	2cc\
2B\	2d\	2G/	2dd\
2.c\	2.e\	2.c\	2r
.	.	.	2g/
4B\	4d\	4d\	.
2A\	2c\	4e\	2a/
.	.	4f\	.
2G\	2B\	2g\	2b\
=27	=27	=27	=27
2.A\	2.c\	2r	2r
.	.	2.c\	2e/
4G\	4B\	.	.
2F\	2A/	.	2f/
.	.	4A/	.
2E\	2G/	4B\	1g
.	.	4c\	.
1D	1A	2d\	.
.	.	2A/	2f#i/
=28	=28	=28	=28
0G	0.G	2B\	1g
.	.	2c\	.
.	.	1d	1r
1r	.	2r	1dd
.	.	2d\	.
=29	=29	=29	=29
0.r	0.r	2e\	2cc\
.	.	2d\	1b
.	.	4e\	.
.	.	4d\	.
.	.	1g	4a/
.	.	.	4g/
.	.	.	1a
.	.	2f\	.
=30	=30	=30	=30
0.r	0.r	2e\	2g/
.	.	1g	2b\
.	.	.	2cc\
.	.	2f\	1dd
.	.	1e	.
.	.	.	2cc#i\
=31	=31	=31	=31
1r	1r	1d	2dd\
.	.	.	2a/
1r	1r	1G	2b-\
.	.	.	4a/
.	.	.	4g/
1D	1d	1A	1f
=32	=32	=32	=32
0E-	2c\	0G	2r
.	1B-i	.	1g
.	4A/	.	4f/
.	4G/	.	4e/
1D	1A	2.d\	1f
.	.	4c\	.
=33	=33	=33	=33
1.E-i	2G/	4B-i\	1g
.	.	4A/	.
.	2B-i\	1G	.
.	2c\	.	1r
2D\	1d	2F/	.
1E-i	.	1G	1g
.	2c\	.	.
=34	=34	=34	=34
1D	1d	1A	2f/
.	.	.	1f
1r	1d	1B	.
.	.	.	4e/
.	.	.	4d/
1C	1g	1c	1e
=35	=35	=35	=35
1D	2.f\	2r	2d/
.	.	2.F/	2.a/
.	4e\	.	.
1r	2d\	.	.
.	.	4G/	4b\
.	2c\	4A/	2.cc\
.	.	4F/	.
1C	1e	1c	.
.	.	.	4b\
.	.	.	4a/
.	.	.	4g/
=36	=36	=36	=36
1D	0f	2r	2b\
.	.	2.F/	1a
1r	.	.	.
.	.	4G/	.
.	.	4A/	1g
.	.	4F/	.
1C	1e	1c	.
.	.	.	4f/
.	.	.	4e/
=37	=37	=37	=37
1.D	1d	2r	2.f/
.	.	1F	.
.	.	.	4g/
.	1r	.	2a/
1.E	.	2.G/	1g
.	1G	.	.
.	.	4A/	.
.	.	4B\	2e/
.	.	4G/	.
=38	=38	=38	=38
1D	1A	2.d\	1f
.	.	4c\	.
1r	2B\	2d\	1g
.	1.c	2e\	.
1C	.	2c\	1e
.	.	2e\	.
=39	=39	=39	=39
1.D	2B\	1d	1.f
.	1A	.	.
.	.	1r	.
1.E	2G/	.	1g
.	1c	1G	.
.	.	.	4f/
.	.	.	4e/
=40	=40	=40	=40
1D	1.d	2A/	2.f/
.	.	1f	.
.	.	.	4g/
1r	.	.	4a/
.	.	.	4b\
.	1.e	2g\	2.cc\
1C	.	2e\	.
.	.	.	4b\
.	.	2c\	4a/
.	.	.	4g/
=41	=41	=41	=41
2D\	2d\	2.f\	2b\
1F	1c	.	1a
.	.	4e\	.
.	.	2f\	.
2G\	2B\	2.d\	1g
1D	1A	.	.
.	.	4c\	.
.	.	2d\	2f#i/
=42	=42	=42	=42
0.G	0.G	2.B\	0g
.	.	4A/	.
.	.	2B\	.
.	.	2G/	.
.	.	1g	1r
=43	=43	=43	=43
0.r	0.r	2.f\	0a
.	.	4e\	.
.	.	2d\	.
.	.	2c\	.
.	.	1B	1g
=44	=44	=44	=44
0.r	0.r	2A/	2f/
.	.	2G/	2.b-i\
.	.	1c	.
.	.	.	4a/
.	.	.	1a
.	.	1B-i	.
.	.	.	2g/
=45	=45	=45	=45
0F	0A	2A/	1a
.	.	1f	.
.	.	.	1cc
.	.	2e\	.
1G	1G	[1d	1b
=46	=46	=46	=46
1D	1F	1d]	1a
0E	0G	1B	0g
.	.	1c	.
=47	=47	=47	=47
0D	0.A	0d	1f
.	.	.	1r
1r	.	1a	1cc
=48	=48	=48	=48
0.r	0.r	2f\	2dd\
.	.	2.g\	2.ee\
.	.	4f\	4dd\
.	.	2d\	1dd
.	.	1e	.
.	.	.	2cc\
=49	=49	=49	=49
1r	1r	2d\	2.dd\
.	.	1f	.
.	.	.	4cc\
1r	1r	.	2a/
.	.	4e\	2b\
.	.	4d\	.
1A	1c	2e\	2.cc\
.	.	[2A/	.
.	.	.	4b\
=50	=50	=50	=50
2F\	2d\	2A/]	4a/
.	.	.	4g/
2.G\	2.e\	2.B\	1g
4F\	4d\	4A/	.
2D\	1d	1A	2f/
1E	.	.	1g
.	2c#i\	2G/	.
=51	=51	=51	=51
0D	0d	1A	2r
.	.	.	1f
.	.	1B	.
.	.	.	2g/
[1F	1c	1A	1a
=52	=52	=52	=52
1F]	1f	2r	1a
.	.	2A/	.
1G	2e\	1B	2g/
.	2d\	.	2f/
1A	1c	1A	1e
=53	=53	=53	=53
0.D	0.d	1.a	0d
.	.	4g\	.
.	.	4f\	.
.	.	1f	1r
=54	=54	=54	=54
*M6/1	*M6/1	*M6/1	*M6/1
*met(2)	*met(2)	*met(2)	*met(2)
00.r	00.r	1r	1a
.	.	1d	1b
.	.	1e	1cc
.	.	1f	1.dd
.	.	1.g	.
.	.	.	4cc\
.	.	.	4b\
.	.	.	[1b
.	.	4f\	.
.	.	4e\	.
=55	=55	=55	=55
00.r	00.r	0e	1b]
.	.	.	1.cc
.	.	1.f	.
.	.	.	4b\
.	.	.	4a/
.	.	.	0a
.	.	4e\	.
.	.	4d\	.
.	.	0d	.
.	.	.	[1b
=56	=56	=56	=56
00.r	00.r	1.e	2b\]
.	.	.	4a/
.	.	.	4g/
.	.	.	1.g
.	.	4d\	.
.	.	4c\	.
.	.	1.c	.
.	.	.	4f/
.	.	.	4e/
.	.	.	1.e
.	.	4B\	.
.	.	4A/	.
.	.	2c\	.
.	.	2d\	2f/
.	.	1B	1g
=57	=57	=57	=57
00.r	00.r	1.A	1.a
.	.	2B\	1g
.	.	2c\	.
.	.	1d	2f/
.	.	.	1e
.	.	2c#i\	.
.	.	1d	2.d/
.	.	.	4e/
.	.	2A/	2f/
.	.	2B-i\	2g/
=58	=58	=58	=58
00.r	00.r	2A/	2a/
.	.	1G	1b-i
.	.	2F/	2a/
.	.	4G/	2b-i\
.	.	4A/	.
.	.	4B-i\	2g/
.	.	4c\	.
.	.	2.d\	2b-i\
.	.	.	1a
.	.	4e\	.
.	.	2f\	.
.	.	1g	2g/
.	.	.	1a
.	.	2f#i\	.
=59	=59	=59	=59
*M3/1	*M3/1	*M3/1	*M3/1
*met(O)	*met(C.)	*met(O)	*met(O)
!!primary-mensuration: met(O)
1r	1.G	0g	0.g
1r	.	.	.
.	1c	.	.
1G	.	1r	.
.	2B\	.	.
=60	=60	=60	=60
2E\	1c	0.r	0.r
1F	.	.	.
.	1d	.	.
2D\	.	.	.
2C/	1e	.	.
[2G\	.	.	.
=61	=61	=61	=61
4G\]	1.d	0.r	0.r
4F\	.	.	.
4G\	.	.	.
2D\	.	.	.
2F\	.	.	.
.	1c	.	.
2E\	.	.	.
2A\	.	.	.
.	2B\	.	.
4G\	.	.	.
=62	=62	=62	=62
2A\	1A	0.r	0.r
2c\	.	.	.
1B	1G	.	.
1A	1c	.	.
=63	=63	=63	=63
2r	1d	0.r	0.r
1d	.	.	.
.	2r	.	.
2c\	1e	.	.
1B	.	.	.
.	2d\	.	.
=64	=64	=64	=64
1A	2c\	0.r	0.r
.	2A/	.	.
2r	1B	.	.
1G	.	.	.
.	1A	.	.
2F\	.	.	.
=65	=65	=65	=65
2E\	2G/	0.r	1r
2D\	2.B\	.	.
2.G\	.	.	1r
.	4c\	.	.
.	1d	.	.
4F\	.	.	.
4E\	.	.	1g
4D\	.	.	.
2E\	2c#i\	.	.
=66	=66	=66	=66
*	*M3/1	*	*
*	*met(O)	*	*
2r	1d	1r	1f
2D\	.	.	.
2.G\	1r	1r	2e/
.	.	.	1d
4F\	.	.	.
4E\	1r	1g	.
4D\	.	.	.
2E\	.	.	2c#i/
=67	=67	=67	=67
2r	0.r	1f	1d
2D\	.	.	.
2.G\	.	2e\	1r
.	.	1d	.
4F\	.	.	.
4E\	.	.	1e
4D\	.	.	.
2E\	.	2c#i\	.
=68	=68	=68	=68
4D\	0.r	1d	2.f/
2d\	.	.	.
4c\	.	.	8e/L
.	.	.	8d/J
4B\	.	1r	2d/
4A\	.	.	.
2B\	.	.	2dd\
1A	.	1e	2.cc\
.	.	.	4b\
=69	=69	=69	=69
2.d\	0.r	2.f\	4a/
.	.	.	4g/
.	.	.	2a/
4c\	.	4e\	.
4B\	.	4d\	2r
4A\	.	4c\	.
2B\	.	2d\	2dd\
2A\	.	2e\	2cc\
2r	.	4d\	4b\
.	.	[4c\	[4a/
=70	=70	=70	=70
1r	0.r	4c\]	4a/]
.	.	4B\	2g/
.	.	2A/	.
.	.	.	4f#i/
2.G\	.	2G/	1g
.	.	2B\	.
4F\	.	.	.
4E\	.	4c\	1r
4D\	.	2d\	.
2E\	.	.	.
.	.	4c#i\	.
=71	=71	=71	=71
4D\	0.r	2d\	0.r
2G\	.	.	.
.	.	2B\	.
4F\	.	.	.
4E\	.	4c\	.
4D\	.	2d\	.
2E\	.	.	.
.	.	4c#i\	.
[1D	.	[1d	.
=72	=72	=72	=72
1D]	1r	1d]	1r
1r	1r	1r	1r
1D	1f	1a	1a
=73	=73	=73	=73
2.A\	2e\	1.a	2.cc\
.	1f	.	.
4G\	.	.	4b\
2A\	.	.	2cc\
2B\	2d\	2g\	1dd
1A	1e	1a	.
.	.	.	2cc#i\
=74	=74	=74	=74
1D	1d	2f\	2dd\
.	.	4e\	1ff
.	.	4d\	.
1r	2d\	0a	.
.	2c\	.	2ee\
1D	1d	.	2dd\
.	.	.	4cc\
.	.	.	4b\
=75	=75	=75	=75
2.A\	2e\	2r	2cc\
.	1f	1a	2.a/
4G\	.	.	.
2A\	.	.	.
.	.	.	4b\
2B\	2d\	2g\	1dd
1A	1e	1a	.
.	.	.	2cc#i\
=76	=76	=76	=76
0D	0d	2r	0dd
.	.	2.f\	.
.	.	4e\	.
.	.	2d\	.
2r	1e	2.c\	2r
2C/	.	.	2g/
.	.	4B\	.
=77	=77	=77	=77
2D\	2d\	2A/	2f/
2E\	1c	2G/	2g/
2F\	.	2r	2d/
2D\	2d\	2A/	2f/
2E\	4B\	2G/	2g/
.	4c\	.	.
2F\	2A/	2c\	2a/
=78	=78	=78	=78
2G\	1G	4r	2d/
.	.	2B\	.
2E\	.	.	2g/
.	.	4c\	.
2F\	2r	2A/	2a/
2G\	2d\	2G/	2b\
2A\	2c\	2r	2cc\
2D\	2d\	2F/	4b\
.	.	.	[4a/
=79	=79	=79	=79
2E\	2c\	4G/	4a/]
.	.	4E/	4g/
2D\	1d	2F/	2f/
1E	.	1G	4e/
.	.	.	4d/
.	2c\	.	1g
1D	[1dl	1A	.
.	.	.	2f#i/
=80	=80	=80	=80
0.Gl	0.d]	0.Gl	0.gl
!!LO:LB:i:g=z
=81||	=81||	=81||	=81||
*>B	*>B	*>B	*>B
*clefF4	*clefGv2	*clefGv2	*clefG2
*k[]	*k[]	*k[]	*k[]
*M2/1	*M2/1	*M2/1	*M2/1
*met(C|)	*met(C|)	*met(C|)	*met(C|)
!!section: Qui tollis
!!!OMD: Qui tollis
0r	[0g	0r	0g
=82	=82	=82	=82
0r	0g]	0r	1.b
.	.	.	4a/
.	.	.	4g/
=83	=83	=83	=83
0r	1f	0r	1a
.	1g	.	2g/
.	.	.	[2dd\
=84	=84	=84	=84
0r	0e	0r	2dd\]
.	.	.	4cc#i\
.	.	.	4b\
.	.	.	1cc#i
=85	=85	=85	=85
[0G	[0d	0G	0dd
=86	=86	=86	=86
0G]	0d]	1.B	0r
.	.	4A/	.
.	.	4G/	.
=87	=87	=87	=87
1F	1r	1A	0r
1G	[1g	2G/	.
.	.	[2d\	.
=88	=88	=88	=88
0E	1g]	2d\]	1r
.	.	4c#i\	.
.	.	4B\	.
.	1g	1c#i	1g
=89	=89	=89	=89
0D	1.f	0d	1.a
.	4e\	.	2b\
.	4d\	.	.
=90	=90	=90	=90
0r	1e	0r	1cc
.	2f\	.	2dd\
.	[2g\	.	[2ee\
=91	=91	=91	=91
0r	4g\]	0r	4ee\]
.	4f\	.	4dd\
.	4e\	.	1dd
.	4d\	.	.
.	1e	.	.
.	.	.	2cc#i\
=92	=92	=92	=92
1r	[0d	0r	[0dd
[1G	.	.	.
=93	=93	=93	=93
1G]	0d]	1r	0dd]
1G	.	1G	.
=94	=94	=94	=94
1.F	0r	1.A	0r
4E\	.	2B\	.
4D\	.	.	.
=95	=95	=95	=95
1E	0r	1c	0r
2F\	.	2d\	.
[2G\	.	[2e\	.
=96	=96	=96	=96
4G\]	0r	4e\]	0r
4F\	.	4d\	.
4E\	.	1d	.
4D\	.	.	.
1E	.	.	.
.	.	2c#i\	.
=97	=97	=97	=97
[0D	0r	0d	1.dd
.	.	.	2cc\
=98	=98	=98	=98
0D]	1.d	0r	1b
.	.	.	1a
.	2c\	.	.
=99	=99	=99	=99
1.G	1B	0r	1g
.	1A	.	1r
2F\	.	.	.
=100	=100	=100	=100
1E	1G	1.g	0r
1D	1r	.	.
.	.	2f\	.
=101	=101	=101	=101
1C	0r	1e	1g
[1F	.	1d	[1a
=102	=102	=102	=102
2F\]	1.c	[0c	2a/]
2G\	.	.	2b\
2A\	.	.	2.cc\
2B\	2d\	.	.
.	.	.	4b\
=103	=103	=103	=103
1.c	2e\	0c]	1.g
.	2f\	.	.
.	[1g	.	.
4B\	.	.	2a/
4A\	.	.	.
=104	=104	=104	=104
1G	2g\]	1.d	2b\
.	2f\	.	2cc\
[1B	1d	.	1dd
.	.	2d\	.
=105	=105	=105	=105
1B]	1.f	1d	1r
1A	.	1c	1a
.	[2e\	.	.
=106	=106	=106	=106
1G	1e]	1B	2b\
.	.	.	2g/
1F	[1d	1A	1a
=107	=107	=107	=107
0E	2d\]	0G	2b\
.	1.c	.	2.cc\
.	.	.	4b\
.	.	.	4a/
.	.	.	4g/
=108	=108	=108	=108
[0D	[0d	1.A	[0f
.	.	[2B-i\	.
=109	=109	=109	=109
0D_	0d_	2B-\]	0f_
.	.	2A/	.
.	.	2.B-i\	.
.	.	4A/	.
=110	=110	=110	=110
0D;]	0d;]	0A;	0f;]
=111	=111	=111	=111
0E	0g	0G	0g
=112	=112	=112	=112
0F	0f	0c	0a
=113	=113	=113	=113
0G	0d	0B	0b
=114	=114	=114	=114
[0A	0c	0e	1.cc
.	.	.	2b\
=115	=115	=115	=115
1A]	1e	1c	2a/
.	.	.	2g/
1F	1f	1A	1a
=116	=116	=116	=116
1G	0e	1B	1g
1A	.	1c	1e
=117	=117	=117	=117
0D;	0d;	0A;	0f;
=118	=118	=118	=118
0d	0r	1r	0r
.	.	[1d	.
=119	=119	=119	=119
1G	0d	1d]	0r
[1d	.	1G	.
=120	=120	=120	=120
2d\]	1G	1.d	0r
2c\	.	.	.
2B\	[1d	.	.
2A\	.	2c\	.
=121	=121	=121	=121
2G\	1d]	2B\	0r
2F\	.	2A/	.
1E	1c	1G	.
=122	=122	=122	=122
1D	1f	2.A/	0r
.	.	4B\	.
1A	2e\	1c	.
.	[2f\	.	.
=123	=123	=123	=123
1B-i	2f\]	1d	0r
.	4e\	.	.
.	4d\	.	.
1A	2e\	2c\	.
.	[2f\	[2c\	.
=124	=124	=124	=124
2F\	4f\]	2c\]	0r
.	4e\	.	.
2G\	1d	4B\	.
.	.	4A/	.
1E	.	1G	.
.	2c#i\	.	.
=125	=125	=125	=125
1D	0d	1A	0r
[1G	.	[1B	.
=126	=126	=126	=126
2G\]	1r	2B\]	0r
2G\	.	2B\	.
1G	1d	1B	.
=127	=127	=127	=127
1G	1e	1B	0r
2A\	1f	2c\	.
[2B\	.	[2d\	.
=128	=128	=128	=128
2B\]	1g	2d\]	0r
4A\	.	4c\	.
4G\	.	4B\	.
1A	2f\	2c\	.
.	[2e\	2A/	.
=129	=129	=129	=129
2.G\	2e\]	2B\	0r
.	2d\	2G/	.
4F\	.	.	.
2D\	2f\	2A/	.
2C/	[2e\	[2c\	.
=130	=130	=130	=130
2F\	2e\]	2c\]	0r
2G\	1d	4B\	.
.	.	4A/	.
1E	.	1G	.
.	2c#i\	.	.
=131	=131	=131	=131
0D	0d	0A	1r
.	.	.	[1dd
=132	=132	=132	=132
0r	0r	1r	1dd]
.	.	1A	1cc
=133	=133	=133	=133
0r	0r	1G	1b
.	.	1A	1cc
=134	=134	=134	=134
0r	0r	2r	1a
.	.	2A/	.
.	.	1B-	1g
=135	=135	=135	=135
0r	0r	1A	1cc
.	.	1B-i	1dd
=136	=136	=136	=136
0r	0r	2A/	1.ee
.	.	2a\	.
.	.	2g\	.
.	.	2a\	[2ff\
=137	=137	=137	=137
0r	0r	2f\	4ff\]
.	.	.	8ee\L
.	.	.	8dd\J
.	.	2g\	1dd
.	.	1e	.
.	.	.	2cc#i\
=138	=138	=138	=138
0r	0r	0d;	0dd;
=139	=139	=139	=139
0B-	0G	0d	0dd
=140	=140	=140	=140
0A	0c	0e	0cc
=141	=141	=141	=141
0G	0d	0g	0b
=142	=142	=142	=142
0F	0f	0c	0a
=143	=143	=143	=143
0G	1e	0B	0g
.	1d	.	.
=144	=144	=144	=144
0E	0c#i	0G	0g
=145	=145	=145	=145
0D;	0d;	0A;	0f;
=146	=146	=146	=146
1.G	1r	0r	0r
.	[1g	.	.
2F\	.	.	.
=147	=147	=147	=147
1E	1g]	0r	0r
2D\	1f	.	.
[2A\	.	.	.
=148	=148	=148	=148
4A\]	2.e\	0r	0r
4G\	.	.	.
4A\	.	.	.
4B\	4d\	.	.
2.c\	2e\	.	.
.	[2c\	.	.
4B\	.	.	.
=149	=149	=149	=149
4A\	4c\]	0r	0r
4G\	4B\	.	.
2.A\	4c\	.	.
.	4d\	.	.
.	2e\	.	.
4G\	.	.	.
4F\	[2f\	.	.
4E\	.	.	.
=150	=150	=150	=150
2F\	4f\]	0r	0r
.	4e\	.	.
2G\	1d	.	.
1E	.	.	.
.	2c#i\	.	.
=151	=151	=151	=151
0D;	0d;	0r	0r
=152	=152	=152	=152
0E	0g	0G	0g
=153	=153	=153	=153
0D	0f	0d	0a
=154	=154	=154	=154
0A	0e	0c	0cc
=155	=155	=155	=155
0A	0c	0e	0cc
=156	=156	=156	=156
0G	0d	0g	0b
=157	=157	=157	=157
0D;	0d;	0f;	0a;
=158	=158	=158	=158
0r	0r	0r	1.g
.	.	.	2f/
=159	=159	=159	=159
0r	0r	1.g	1g
.	.	.	1a
.	.	2f\	.
=160	=160	=160	=160
0r	0r	1g	1g
.	.	1a	1d
=161	=161	=161	=161
0r	0r	1g	1e
.	.	1d	1f
=162	=162	=162	=162
0r	0r	1e	1g
.	.	1f	2r
.	.	.	2a/
=163	=163	=163	=163
0r	0r	1g	2b\
.	.	.	2cc\
.	.	2r	1dd
.	.	2d\	.
=164	=164	=164	=164
0r	0r	2e\	1cc
.	.	2f\	.
.	.	1g	2b\
.	.	.	[2ee\
=165	=165	=165	=165
0r	0r	2f\	4ee\]
.	.	.	4dd\
.	.	2g\	1dd
.	.	1e	.
.	.	.	2cc#i\
=166	=166	=166	=166
0r	0r	0d;	0dd;
=167	=167	=167	=167
0G	0g	0d	0b
=168	=168	=168	=168
0F	0a	0f	0cc
=169	=169	=169	=169
0G	0g	0d	0b
=170	=170	=170	=170
1r	1f	1d	1a
[1C	[1g	[1c	[1ee
=171	=171	=171	=171
1C]	1g]	2c\]	2ee\]
.	.	2B\	2dd\
1D	1f	[1A	[1dd
=172	=172	=172	=172
0A	0e	1A]	1dd]
.	.	1A	1cc#i
=173	=173	=173	=173
0D	0d	0A	0dd
=174	=174	=174	=174
0F	0c	0A	0a
=175	=175	=175	=175
0F	0f	0c	0a
=176	=176	=176	=176
0C	0e	0c	0g
=177	=177	=177	=177
0D	0d	0A	0f
!!LO:LB:i:g=z
=178||	=178||	=178||	=178||
*>C	*>C	*>C	*>C
*clefF4	*clefGv2	*clefGv2	*clefG2
*k[]	*k[]	*k[]	*k[]
*M3/1	*M3/1	*M3/1	*M3/1
*met(3)	*met(3)	*met(3)	*met(3)
!!!OMD: Cum Sancto
!!section: Cum Sancto
0.r	0.r	1.d	1.dd
.	.	2e\	2cc\
.	.	1f	1dd
=179	=179	=179	=179
0.r	0.r	1g	1ee
.	.	1.a	0cc
.	.	2g\	.
=180	=180	=180	=180
0.r	1.d	2f#i\	1b
.	.	2e\	.
.	.	1.f#i	0a
.	2c\	.	.
.	1d	.	.
.	.	2e\	.
=181	=181	=181	=181
1C	1e	0g	1g
1E	0c	.	1r
1F	.	1r	1r
=182	=182	=182	=182
1.G	1B	0.r	0.r
.	0A	.	.
4F#i\	.	.	.
4E\	.	.	.
1F#i	.	.	.
=183	=183	=183	=183
0G	1G	0.r	1.g
.	1B	.	.
.	.	.	2f/
1r	1c	.	1e
=184	=184	=184	=184
0.r	0d	1r	2d/
.	.	.	1f
.	.	1r	.
.	.	.	2g/
.	1c#i	1g	1e
=185	=185	=185	=185
0D	0.d	1.f	0d
.	.	2e\	.
[1G	.	2d\	1d
.	.	2c\	.
=186	=186	=186	=186
1G]	0.r	2B\	0g
.	.	2G/	.
1G	.	2.B\	.
.	.	4c\	.
1F#i	.	1A	1a
=187	=187	=187	=187
1.G	0d	0.G	0b
2A\	.	.	.
1B	[1g	.	1b
=188	=188	=188	=188
1c	1g]	1r	1g
0A	1g	1r	0cc
.	1f	1c	.
=189	=189	=189	=189
1G	0g	1.d	1b
1.B-i	.	.	1.dd
.	.	2e\	.
.	1d	[1f	.
2A\	.	.	2cc\
=190	=190	=190	=190
1.F	0f	2f\]	1.a
.	.	2e\	.
.	.	0c	.
2G\	.	.	2b\
1A	1e	.	1cc
=191	=191	=191	=191
1B-i	1d	1f	1dd
1A	1c	0a	0ee
[1B-i	[1d	.	.
=192	=192	=192	=192
1B-]	1d]	1g	0dd
0A	0e	0a	.
.	.	.	1cc#i
=193	=193	=193	=193
*M2/1	*M2/1	*M2/1	*M2/1
*met(C|)	*met(C|)	*met(C|)	*met(C|)
[0D	[0d	0f	0dd
=194	=194	=194	=194
0D]	0d]	1r	1r
.	.	1d	1dd
=195	=195	=195	=195
0r	0r	1e	2b\
.	.	.	1cc
.	.	1f	.
.	.	.	4b\
.	.	.	4a/
=196	=196	=196	=196
1r	1r	2g\	1g
.	.	2G/	.
1D	1d	1A	1f
=197	=197	=197	=197
1E	2B\	1G	1g
.	1c	.	.
1F	.	2r	1a
.	2A/	2c\	.
=198	=198	=198	=198
2G\	2G/	2B\	2r
2A\	2F/	1c	1a
2.F\	2.A/	.	.
.	.	2d\	2f/
4E\	4B\	.	.
=199	=199	=199	=199
2C/	2c\	1.e	2e/
2.E\	2G/	.	1.g
.	2.B\	.	.
4F\	.	.	.
2G\	.	2d\	.
.	4c\	.	.
=200	=200	=200	=200
2D\	2d\	1.f	2f/
2.F\	2A/	.	1.a
.	2.c\	.	.
4G\	.	.	.
2A\	.	2e\	.
.	4d\	.	.
=201	=201	=201	=201
2E\	2e\	1.g	2g/
2.G\	2B\	.	2.b\
.	2.d\	.	.
4A\	.	.	4cc\
2B-i\	.	[2f\	2dd\
.	4e\	.	.
=202	=202	=202	=202
2F\	2f\	2f\]	2a/
2.A\	2c\	2e\	1.cc
.	2.e\	1c	.
4B\	.	.	.
2c\	.	.	.
.	4f\	.	.
=203	=203	=203	=203
2G\	2g\	1.d	2b\
2.B-i\	2d\	.	2.dd\
.	2.f\	.	.
4A\	.	.	4cc\
2F\	.	[2f\	4a/
.	4e\	.	4b\
=204	=204	=204	=204
2.A\	2c\	4f\]	2.cc\
.	.	4e\	.
.	2.e\	4c\	.
4G\	.	4d\	4b\
2E\	.	2.e\	4g/
.	4d\	.	4a/
[2G\	2B\	.	[2b\
.	.	4d\	.
=205	=205	=205	=205
4G\]	2.d\	4B\	4b\]
4F\	.	4c\	4a/
2D\	.	2.d\	4f/
.	4c\	.	4g/
2.F\	2A/	.	2.a/
.	.	4c\	.
.	[2c\	4A/	.
4E\	.	4B\	4g/
=206	=206	=206	=206
2C/	4c\]	1c	4e/
.	4B\	.	4d/
2E\	2G/	.	1g
1D	1A	[1d	.
.	.	.	2f#i/
=207	=207	=207	=207
[0Gl	[0Gl	2d\]	[0gl
.	.	1.e	.
=208	=208	=208	=208
0G]	0G]	0dl	0g]
==	==	==	==
*-	*-	*-	*-
!!!RDF**kern: l=long note in original notation
!!!RDF**kern: i=editorial accidental
!!!ENC: Will Watson 27/05/2011
!!!END: 2011/05/27/
!!!EED:	Jesse Rodin
!!!EEV:	2013/10/25/
!!attribution-level@Jos: 2 (slightly less secure)
!!!ONB:	Translated from MusicXML and edited on 2011/08/18/ by Craig Sapp
!!muse2ps: C^@{COA}?\n@{SCT}^i2I100v90,90,90,150c120Q16
